dist/flags/s/258.svg

<svg width="16" height="12" viewBox="0 0 16 12" fill="none" xmlns="http://www.w3.org/2000/svg">
<mask id="mask0" mask-type="alpha" maskUnits="userSpaceOnUse" x="0" y="0" width="16" height="12">
<rect width="16" height="12" fill="white"/>
</mask>
<g mask="url(#mask0)">
<path fill-rule="evenodd" clip-rule="evenodd" d="M0 0V12H16V0H0Z" fill="#F7FCFF"/>
<mask id="mask1" mask-type="alpha" maskUnits="userSpaceOnUse" x="0" y="0" width="16" height="12">
<path fill-rule="evenodd" clip-rule="evenodd" d="M0 0V12H16V0H0Z" fill="white"/>
</mask>
<g mask="url(#mask1)">
<path fill-rule="evenodd" clip-rule="evenodd" d="M0 0V3H16V0H0Z" fill="#BF2714"/>
<path fill-rule="evenodd" clip-rule="evenodd" d="M0 9V12H16V9H0Z" fill="#BF2714"/>
<mask id="mask2" mask-type="alpha" maskUnits="userSpaceOnUse" x="5" y="3" width="6" height="6">
<path fill-rule="evenodd" clip-rule="evenodd" d="M8 9C9.65685 9 11 7.65685 11 6C11 4.34315 9.65685 3 8 3C6.34315 3 5 4.34315 5 6C5 7.65685 6.34315 9 8 9Z" fill="white"/>
</mask>
<g mask="url(#mask2)">
<path fill-rule="evenodd" clip-rule="evenodd" d="M7.019 6.68766L7.23875 3.07456C5.95054 3.339 5 4.31382 5 6.10208C5 7.04543 5.627 6.93312 6.55266 6.76732C6.7009 6.74076 6.85679 6.71284 7.019 6.68766ZM8.44716 3.02698L8.95816 6.69939C9.14281 6.73309 9.31941 6.77152 9.48601 6.80777C10.3904 7.00456 11 7.1372 11 6.10208C11 4.25671 9.89193 3.20447 8.44716 3.02698Z" fill="#FA8F21"/>
<path fill-rule="evenodd" clip-rule="evenodd" d="M8 9C9.65685 9 11 8.10457 11 7C11 5.89543 9.65685 5 8 5C6.34315 5 5 5.89543 5 7C5 8.10457 6.34315 9 8 9Z" fill="#5277B9"/>
<path fill-rule="evenodd" clip-rule="evenodd" d="M5.27431 6.88244C5.24694 6.79671 5.33954 6.72228 5.41738 6.76745L5.60423 6.87588C5.6321 6.89205 5.66612 6.89355 5.6953 6.87989L6.15653 6.66393C6.18886 6.64879 6.22686 6.65236 6.2558 6.67325L6.75405 7.03285L7.44278 6.66204C7.46932 6.64775 7.50095 6.64641 7.5286 6.65843L8.04731 6.88376C8.07353 6.89515 8.10341 6.89457 8.12917 6.88217L8.59451 6.65817C8.61935 6.64621 8.64806 6.64523 8.67366 6.65545L9.24938 6.88542C9.27532 6.89578 9.30445 6.89462 9.32948 6.88224L9.77545 6.66161C9.80365 6.64766 9.83682 6.64804 9.86469 6.66263L10.2737 6.87684C10.3033 6.89234 10.3388 6.89175 10.3678 6.87528L10.5806 6.75478C10.6564 6.71182 10.7465 6.7814 10.7241 6.86562L10.6797 7.03285H5.32233L5.27431 6.88244Z" fill="#5277B9"/>
<path fill-rule="evenodd" clip-rule="evenodd" d="M5.27243 7.47543C5.24586 7.38917 5.33979 7.31567 5.41713 7.36219L5.58712 7.46443C5.61562 7.48157 5.65085 7.48315 5.68076 7.46863L6.11938 7.25577C6.15248 7.23971 6.19178 7.24346 6.22124 7.2655L6.69922 7.62306L7.36105 7.25372C7.38823 7.23856 7.42098 7.23715 7.44937 7.24993L7.94424 7.47275C7.97117 7.48488 8.00212 7.48426 8.02854 7.47108L8.47237 7.24963C8.49786 7.23692 8.5276 7.23587 8.55391 7.24676L9.104 7.47451C9.13066 7.48555 9.16082 7.48432 9.1865 7.47115L9.61136 7.2533C9.64026 7.23848 9.67462 7.23888 9.70316 7.25437L10.092 7.46541C10.1223 7.48186 10.159 7.48124 10.1887 7.46378L10.3837 7.34926C10.4592 7.30497 10.5505 7.37379 10.5288 7.45851L10.4866 7.62306H5.3179L5.27243 7.47543Z" fill="#5277B9"/>
<path fill-rule="evenodd" clip-rule="evenodd" d="M5.37079 7.86886C5.34422 7.78261 5.43815 7.7091 5.51549 7.75562L5.68548 7.85786C5.71398 7.87501 5.7492 7.87659 5.77912 7.86207L6.21774 7.6492C6.25084 7.63314 6.29014 7.63689 6.3196 7.65893L6.79758 8.01649L7.45941 7.64716C7.48659 7.63199 7.51934 7.63058 7.54772 7.64336L8.0426 7.86618C8.06953 7.87831 8.10047 7.87769 8.1269 7.86451L8.57073 7.64306C8.59622 7.63035 8.62596 7.6293 8.65227 7.6402L9.20235 7.86794C9.22902 7.87898 9.25918 7.87775 9.28486 7.86459L9.70972 7.64673C9.73862 7.63191 9.77297 7.63231 9.80152 7.64781L10.1903 7.85884C10.2206 7.87529 10.2573 7.87467 10.2871 7.85722L10.4821 7.74269C10.5575 7.69841 10.6489 7.76722 10.6272 7.85194L10.585 8.01649H5.41626L5.37079 7.86886Z" fill="#5277B9"/>
<path fill-rule="evenodd" clip-rule="evenodd" d="M5.96097 8.2623C5.9344 8.17604 6.02832 8.10253 6.10567 8.14905L6.27566 8.2513C6.30415 8.26844 6.33938 8.27002 6.3693 8.2555L6.80792 8.04264C6.84102 8.02657 6.88032 8.03032 6.90978 8.05236L7.38776 8.40992L8.04959 8.04059C8.07677 8.02542 8.10952 8.02401 8.1379 8.03679L8.63278 8.25962C8.6597 8.27174 8.69065 8.27113 8.71708 8.25794L9.16091 8.0365C9.18639 8.02378 9.21614 8.02274 9.24245 8.03363L9.79253 8.26137C9.8192 8.27241 9.84936 8.27119 9.87504 8.25802L10.2999 8.04016C10.3288 8.02534 10.3632 8.02575 10.3917 8.04124L10.7805 8.25228C10.8108 8.26872 10.8475 8.2681 10.8772 8.25065L11.0723 8.13613C11.1477 8.09184 11.2391 8.16065 11.2174 8.24538L11.1752 8.40992H6.00644L5.96097 8.2623Z" fill="#5277B9"/>
<path fill-rule="evenodd" clip-rule="evenodd" d="M5.17407 8.75412C5.1475 8.66786 5.24143 8.59435 5.31877 8.64088L5.48876 8.74312C5.51726 8.76026 5.55249 8.76184 5.5824 8.74732L6.02102 8.53446C6.05412 8.51839 6.09342 8.52215 6.12288 8.54419L6.60086 8.90174L7.26269 8.53241C7.28987 8.51724 7.32263 8.51583 7.35101 8.52861L7.84588 8.75144C7.87281 8.76356 7.90376 8.76295 7.93018 8.74976L8.37402 8.52832C8.3995 8.5156 8.42924 8.51456 8.45556 8.52545L9.00564 8.7532C9.0323 8.76423 9.06247 8.76301 9.08814 8.74984L9.513 8.53198C9.5419 8.51716 9.57626 8.51757 9.6048 8.53306L9.99362 8.7441C10.0239 8.76054 10.0606 8.75992 10.0903 8.74247L10.2854 8.62795C10.3608 8.58366 10.4522 8.65247 10.4305 8.7372L10.3883 8.90174H5.21954L5.17407 8.75412Z" fill="#5277B9"/>
<path d="M6.33359 4.7229H6.83359L6.822 6.69895C6.90594 6.96501 7.0257 7.06896 7.21124 7.06896V7.56896C6.78908 7.56896 6.4904 7.30971 6.33359 6.77417V4.7229Z" fill="#FF0000"/>
<path d="M9.59589 4.7229H9.09589L9.10747 6.69895C9.02353 6.96501 8.90377 7.06896 8.71823 7.06896V7.56896C9.14039 7.56896 9.43907 7.30971 9.59589 6.77417V4.7229Z" fill="#FF0000"/>
<path fill-rule="evenodd" clip-rule="evenodd" d="M8.36234 3.45429C8.36234 3.45429 7.5329 3.2374 7.5329 3.78737C7.5329 4.33734 7.5329 5.51844 7.5329 5.51844L8.49988 5.80561V4.39071C8.49988 4.39071 8.01639 4.09528 8.01639 3.86425C8.01639 3.63321 8.36234 3.45429 8.36234 3.45429Z" fill="#FF0000"/>
<path d="M6.96683 6.44545L7.28217 6.04248" stroke="black" stroke-width="0.5"/>
<path d="M7.2544 6.43211L6.95224 6.02673" stroke="black" stroke-width="0.5"/>
<path d="M7.41928 6.44545L7.73463 6.04248" stroke="black" stroke-width="0.5"/>
<path d="M7.70685 6.43211L7.40469 6.02673" stroke="black" stroke-width="0.5"/>
<path d="M7.85208 6.44545L8.16743 6.04248" stroke="black" stroke-width="0.5"/>
<path d="M8.13965 6.43211L7.83749 6.02673" stroke="black" stroke-width="0.5"/>
<path d="M8.30453 6.44545L8.61988 6.04248" stroke="black" stroke-width="0.5"/>
<path d="M8.5921 6.43211L8.28995 6.02673" stroke="black" stroke-width="0.5"/>
<path d="M8.75699 6.44545L9.07233 6.04248" stroke="black" stroke-width="0.5"/>
<path d="M9.04456 6.43211L8.7424 6.02673" stroke="black" stroke-width="0.5"/>
</g>
</g>
</g>
</svg>

<svg width="16" height="12" fill="none" xmlns="http://www.w3.org/2000/svg">
  <mask id="a" maskUnits="userSpaceOnUse" x="0" y="0" width="16" height="12">
    <path fill="#fff" d="M0 0h16v12H0z"/>
  </mask>
  <g mask="url(#a)">
    <path fill-rule="evenodd" clip-rule="evenodd" d="M0 0v12h16V0H0z" fill="#F7FCFF"/>
    <mask id="b" maskUnits="userSpaceOnUse" x="0" y="0" width="16" height="12">
      <path fill-rule="evenodd" clip-rule="evenodd" d="M0 0v12h16V0H0z" fill="#fff"/>
    </mask>
    <g mask="url(#b)">
      <path fill-rule="evenodd" clip-rule="evenodd" d="M0 0v3h16V0H0zm0 9v3h16V9H0z" fill="#BF2714"/>
      <mask id="c" maskUnits="userSpaceOnUse" x="5" y="3" width="6" height="6">
        <path fill-rule="evenodd" clip-rule="evenodd" d="M8 9a3 3 0 100-6 3 3 0 000 6z" fill="#fff"/>
      </mask>
      <g mask="url(#c)">
        <path fill-rule="evenodd" clip-rule="evenodd" d="M7.019 6.688l.22-3.613C5.95 3.338 5 4.314 5 6.101c0 .943.627.831 1.553.665.148-.026.304-.054.466-.08zm1.428-3.661l.511 3.672c.185.034.361.072.528.109.904.197 1.514.33 1.514-.706 0-1.845-1.108-2.898-2.553-3.075z" fill="#FA8F21"/>
        <path fill-rule="evenodd" clip-rule="evenodd" d="M8 9c1.657 0 3-.895 3-2S9.657 5 8 5s-3 .895-3 2 1.343 2 3 2z" fill="#5277B9"/>
        <path fill-rule="evenodd" clip-rule="evenodd" d="M5.274 6.882a.098.098 0 01.143-.115l.187.109a.098.098 0 00.091.004l.462-.216a.098.098 0 01.099.01l.498.359.689-.371a.098.098 0 01.086-.004l.518.226c.027.011.056.01.082-.002l.466-.224a.098.098 0 01.079-.003l.575.23c.026.01.056.01.08-.003l.447-.22a.098.098 0 01.089 0l.409.215c.03.015.065.015.094-.002l.213-.12a.098.098 0 01.143.11l-.044.168H5.322l-.048-.15zm-.002.593a.098.098 0 01.145-.113l.17.102a.098.098 0 00.094.005l.438-.213a.098.098 0 01.102.01l.478.357.662-.37a.098.098 0 01.088-.003l.495.223a.098.098 0 00.085-.002l.443-.221a.098.098 0 01.082-.003l.55.227a.1.1 0 00.083-.003l.424-.218a.098.098 0 01.092.001l.389.211c.03.017.067.016.097-.001l.195-.115a.098.098 0 01.145.11l-.042.164H5.318l-.046-.148zm.098.394a.098.098 0 01.146-.113l.17.102a.098.098 0 00.093.004l.439-.213a.098.098 0 01.102.01l.478.357.662-.369a.098.098 0 01.088-.004l.495.223a.098.098 0 00.084-.002l.444-.221a.098.098 0 01.081-.003l.55.228a.1.1 0 00.083-.004l.425-.217a.098.098 0 01.092 0l.388.212c.03.016.067.016.097-.002l.195-.114a.098.098 0 01.145.109l-.042.164H5.416l-.045-.147zm.591.393a.098.098 0 01.145-.113l.17.102a.098.098 0 00.093.004l.439-.212a.098.098 0 01.102.01l.478.357.662-.37a.098.098 0 01.088-.003l.495.223a.098.098 0 00.084-.002l.444-.222a.098.098 0 01.081-.002l.55.227a.1.1 0 00.083-.003l.425-.218a.098.098 0 01.092.001l.389.211c.03.017.066.016.096-.001l.195-.115a.098.098 0 01.145.11l-.042.164H6.006l-.045-.148zm-.787.492a.098.098 0 01.145-.113l.17.102a.098.098 0 00.093.004l.439-.213a.098.098 0 01.102.01l.478.358.662-.37a.098.098 0 01.088-.003l.495.222a.098.098 0 00.084-.001l.444-.222a.098.098 0 01.082-.003l.55.228c.026.011.056.01.082-.003l.425-.218a.098.098 0 01.092.001l.389.211c.03.016.067.016.096-.002l.195-.114a.098.098 0 01.146.11l-.043.164H5.22l-.046-.148z" fill="#5277B9"/>
        <path d="M6.334 4.723h.5l-.012 1.976c.084.266.204.37.39.37v.5c-.423 0-.722-.26-.878-.795V4.723zm3.262 0h-.5l.012 1.976c-.084.266-.204.37-.39.37v.5c.422 0 .721-.26.878-.795V4.723z" fill="red"/>
        <path fill-rule="evenodd" clip-rule="evenodd" d="M8.362 3.454s-.829-.217-.829.333v1.731l.967.288V4.39s-.484-.296-.484-.527c0-.23.346-.41.346-.41z" fill="red"/>
        <path d="M6.967 6.445l.315-.403m-.028.39l-.302-.405m.468.418l.315-.403m-.028.39l-.302-.405m.447.418l.316-.403m-.028.39l-.302-.405m.467.418l.315-.403m-.028.39l-.302-.405m.467.418l.315-.403m-.027.39l-.303-.405" stroke="#000" stroke-width=".5"/>
      </g>
    </g>
  </g>
</svg>
